src/topics/icons/vivaldi.svg

<svg height="256" preserveAspectRatio="xMidYMid" viewBox="0 0 256 256" width="256" xmlns="http://www.w3.org/2000/svg" xmlns:xlink="http://www.w3.org/1999/xlink"><linearGradient id="a" x1="82.165601%" x2="35.139292%" y1="64.827001%" y2="45.368451%"><stop offset="0" stop-opacity="0"/><stop offset="1" stop-opacity=".2"/></linearGradient><path d="m.51600953 48.3895578c-.78806134-4.0542241 1.86133144-7.9799918 5.9139109-8.7677335l201.18197657-39.1058148c4.054224-.78806134 7.979992 1.86133144 8.767734 5.9139109l39.105815 201.1819766c.788061 4.054224-1.861332 7.979992-5.913911 8.767734l-201.1819772 39.105814c-4.0542241.788062-7.9799918-1.861331-8.7677334-5.91391z" fill="#f03939" fill-opacity=".3"/><path d="m9.53601736 35.2491489c-.35996244-4.1143895 2.68527114-7.7417145 6.79799154-8.1015309l204.1675521-17.86234623c4.114389-.35996244 7.741714 2.68527113 8.10153 6.79799163l17.862347 204.1675516c.359962 4.114389-2.685272 7.741714-6.797992 8.101531l-204.1675515 17.862346c-4.1143895.359962-7.7417145-2.685271-8.1015309-6.797992z" fill="#f03939" fill-opacity=".5"/><rect fill="#ef3939" height="219.87429" rx="7" width="219.87429" x="18.187501" y="18.187501"/><path d="m18.4367911 25.6686741c0-3.9940932 3.2377604-7.231883 7.231883-7.231883h204.9119419c3.994094 0 7.231884 3.2377604 7.231884 7.231883v204.9119419c0 3.994094-3.237761 7.231884-7.231884 7.231884h-204.9119419c-3.9940932 0-7.231883-3.237761-7.231883-7.231884zm-.4985812 0v204.9119419c0 4.269483 3.4610132 7.730465 7.7304642 7.730465h204.9119419c4.269483 0 7.730465-3.461014 7.730465-7.730465v-204.9119419c0-4.2694824-3.461014-7.7304642-7.730465-7.7304642h-204.9119419c-4.2694824 0-7.7304642 3.4610132-7.7304642 7.7304642z" fill-opacity=".3"/><path d="m238.06179 80.4171692v127.6479018c0 16.56673-13.423138 29.996719-29.996719 29.996719h-26.915764l-63.420079-36.620786 35.100114-60.801972c1.146736.174504 2.318402.27422 3.514997.27422 14.608428 0 26.44973-14.708144 26.44973-32.856498 0-5.235102-.997162-10.1710558-2.742196-14.55857l20.167607-34.9256099z" fill="url(#a)"/><path d="m170.678547 84.5237232c-6.331981-12.6888904.398865-26.8735243 14.184634-29.9148693 11.218076-2.4929058 22.835017 5.7336833 24.305831 17.1262627.648156 4.9858115-.324078 9.5478291-2.816983 13.8605561-20.441828 35.4491203-40.908584 70.8733113-61.300553 106.3224313-3.789217 6.581271-9.323468 10.569921-16.876973 11.11836-8.475879.598297-15.131938-2.941629-19.394807-10.295701-12.9381805-22.21179-25.7267872-44.498368-38.5652519-66.760017-7.8027951-13.536478-15.6554483-27.0729564-23.4333143-40.6343639-7.8526533-13.6860527.9971623-30.3137342 16.7523268-31.1363931 8.3013762-.423794 14.7330731 3.4152809 18.9460839 10.6197786 5.7586123 9.8469778 11.4175085 19.7687428 17.1262627 29.6406497 4.1132948 7.1297107 8.1518018 14.3092787 12.3897418 21.3392737 6.107619 10.245842 15.131938 16.004455 27.097886 16.727398 16.976688.997162 32.731853-11.267935 34.776035-29.266714.149575-1.346169.249291-2.692339.299149-3.3903522-.074787-5.8333995-1.171666-10.7444239-3.490068-15.3562996z" fill="#fff"/></svg>

<?xml version="1.0" encoding="UTF-8" standalone="no"?>
<svg width="256px" height="256px" viewBox="0 0 256 256" version="1.1" xmlns="http://www.w3.org/2000/svg" xmlns:xlink="http://www.w3.org/1999/xlink" preserveAspectRatio="xMidYMid">
    <defs>
        <linearGradient x1="82.1656009%" y1="64.8270006%" x2="35.1392915%" y2="45.3684509%" id="linearGradient-1">
            <stop stop-color="#000000" stop-opacity="0" offset="0%"></stop>
            <stop stop-color="#000000" stop-opacity="0.2" offset="100%"></stop>
        </linearGradient>
    </defs>
	<g>
		<path d="M0.51600953,48.3895578 C-0.272051811,44.3353337 2.37734097,40.409566 6.42992043,39.6218243 L207.611897,0.516009502 C211.666121,-0.27205184 215.591889,2.37734094 216.379631,6.4299204 L255.485446,207.611897 C256.273507,211.666121 253.624114,215.591889 249.571535,216.379631 L48.3895578,255.485445 C44.3353337,256.273507 40.409566,253.624114 39.6218244,249.571535 L0.51600953,48.3895578 L0.51600953,48.3895578 Z" fill-opacity="0.3" fill="#F03939"></path>
		<path d="M9.53601736,35.2491489 C9.17605492,31.1347594 12.2212885,27.5074344 16.3340089,27.147618 L220.501561,9.28527177 C224.61595,8.92530933 228.243275,11.9705429 228.603091,16.0832634 L246.465438,220.250815 C246.8254,224.365204 243.780166,227.992529 239.667446,228.352346 L35.4998945,246.214692 C31.385505,246.574654 27.75818,243.529421 27.3983636,239.4167 L9.53601736,35.2491489 L9.53601736,35.2491489 Z" fill-opacity="0.5" fill="#F03939"></path>
		<rect fill="#EF3939" x="18.1875005" y="18.1875005" width="219.87429" height="219.87429" rx="7"></rect>
		<path d="M18.4367911,25.6686741 C18.4367911,21.6745809 21.6745515,18.4367911 25.6686741,18.4367911 L230.580616,18.4367911 C234.57471,18.4367911 237.8125,21.6745515 237.8125,25.6686741 L237.8125,230.580616 C237.8125,234.57471 234.574739,237.8125 230.580616,237.8125 L25.6686741,237.8125 C21.6745809,237.8125 18.4367911,234.574739 18.4367911,230.580616 L18.4367911,25.6686741 L18.4367911,25.6686741 Z M17.9382099,25.6686741 L17.9382099,230.580616 C17.9382099,234.850099 21.3992231,238.311081 25.6686741,238.311081 L230.580616,238.311081 C234.850099,238.311081 238.311081,234.850067 238.311081,230.580616 L238.311081,25.6686741 C238.311081,21.3991917 234.850067,17.9382099 230.580616,17.9382099 L25.6686741,17.9382099 C21.3991917,17.9382099 17.9382099,21.3992231 17.9382099,25.6686741 L17.9382099,25.6686741 Z" fill-opacity="0.3" fill="#000000"></path>
		<path d="M238.06179,80.4171692 L238.06179,208.065071 C238.06179,224.631801 224.638652,238.06179 208.065071,238.06179 L181.149307,238.06179 L117.729228,201.441004 L152.829342,140.639032 C153.976078,140.813536 155.147744,140.913252 156.344339,140.913252 C170.952767,140.913252 182.794069,126.205108 182.794069,108.056754 C182.794069,102.821652 181.796907,97.8856982 180.051873,93.498184 L200.21948,58.5725741 L238.06179,80.4171692 Z" fill="url(#linearGradient-1)"></path>
		<path d="M170.678547,84.5237232 C164.346566,71.8348328 171.077412,57.6501989 184.863181,54.6088539 C196.081257,52.1159481 207.698198,60.3425372 209.169012,71.7351166 C209.817168,76.7209281 208.844934,81.2829457 206.352029,85.5956727 C185.910201,121.044793 165.443445,156.468984 145.051476,191.918104 C141.262259,198.499375 135.728008,202.488025 128.174503,203.036464 C119.698624,203.634761 113.042565,200.094835 108.779696,192.740763 C95.8415155,170.528973 83.0529088,148.242395 70.2144441,125.980746 C62.411649,112.444268 54.5589958,98.9077896 46.7811298,85.3463821 C38.9284765,71.6603294 47.7782921,55.0326479 63.5334566,54.209989 C71.8348328,53.786195 78.2665297,57.6252699 82.4795405,64.8297676 C88.2381528,74.6767454 93.897049,84.5985104 99.6058032,94.4704173 C103.719098,101.600128 107.757605,108.779696 111.995545,115.809691 C118.103164,126.055533 127.127483,131.814146 139.093431,132.537089 C156.070119,133.534251 171.825284,121.269154 173.869466,103.270375 C174.019041,101.924206 174.118757,100.578036 174.168615,99.8800228 C174.093828,94.0466233 172.996949,89.1355989 170.678547,84.5237232 L170.678547,84.5237232 Z" fill="#FFFFFF"></path>
	</g>
</svg>
